Simply-Blue-Circles/scalable/apps/katomic.svg

<svg xmlns="http://www.w3.org/2000/svg" width="48" height="48" viewBox="0 0 12.7 12.7"><path d="M6.34.07a6.29 6.29 0 0 0-6.29 6.3 6.29 6.29 0 0 0 6.3 6.28 6.29 6.29 0 0 0 6.28-6.29A6.29 6.29 0 0 0 6.34.07zm-.01.94a5.4 5.4 0 0 1 5.4 5.4 5.4 5.4 0 0 1-5.4 5.41 5.4 5.4 0 0 1-5.41-5.4A5.4 5.4 0 0 1 6.32 1zM8.2 2.89c-1.03 0-1.86.83-1.86 1.86 0 .42.16.78.39 1.1.07-.05.13-.12.21-.15A1.87 1.87 0 0 1 9 6.1c.07.06.1.15.16.23.54-.33.92-.9.92-1.58 0-1.03-.83-1.86-1.87-1.86zm-3.7 3.2a1.86 1.86 0 1 0 0 3.72c.82 0 1.5-.53 1.74-1.27-.1-.13-.2-.25-.27-.4a1.75 1.75 0 0 1-.02-1.32 1.83 1.83 0 0 0-1.45-.74z" fill="#2c89a0"/><path d="M5.2 3.24a1.86 1.86 0 1 0 0 3.73c.25 0 .5-.05.71-.14v.02l-.6.49.34 1.12.54.07a1.86 1.86 0 1 0 2.97-2.26l.03-.43-.63-.4-.8-.08-.75.13A1.84 1.84 0 0 0 5.2 3.24z" opacity=".75" fill="#2c89a0"/></svg>

<?xml version="1.0" encoding="UTF-8" standalone="no"?>
<svg
   xmlns:dc="http://purl.org/dc/elements/1.1/"
   xmlns:cc="http://creativecommons.org/ns#"
   xmlns:rdf="http://www.w3.org/1999/02/22-rdf-syntax-ns#"
   xmlns:svg="http://www.w3.org/2000/svg"
   xmlns="http://www.w3.org/2000/svg"
   xmlns:sodipodi="http://sodipodi.sourceforge.net/DTD/sodipodi-0.dtd"
   xmlns:inkscape="http://www.inkscape.org/namespaces/inkscape"
   width="48"
   height="48"
   viewBox="0 0 12.7 12.7"
   version="1.1"
   id="svg6"
   sodipodi:docname="katomic.svg"
   inkscape:version="0.92.4 (5da689c313, 2019-01-14)">
  <metadata
     id="metadata12">
    <rdf:RDF>
      <cc:Work
         rdf:about="">
        <dc:format>image/svg+xml</dc:format>
        <dc:type
           rdf:resource="http://purl.org/dc/dcmitype/StillImage" />
        <dc:title></dc:title>
      </cc:Work>
    </rdf:RDF>
  </metadata>
  <defs
     id="defs10" />
  <sodipodi:namedview
     pagecolor="#ffffff"
     bordercolor="#666666"
     borderopacity="1"
     objecttolerance="10"
     gridtolerance="10"
     guidetolerance="10"
     inkscape:pageopacity="0"
     inkscape:pageshadow="2"
     inkscape:window-width="1087"
     inkscape:window-height="480"
     id="namedview8"
     showgrid="false"
     inkscape:zoom="4.9166667"
     inkscape:cx="2.1355932"
     inkscape:cy="24"
     inkscape:window-x="0"
     inkscape:window-y="25"
     inkscape:window-maximized="0"
     inkscape:current-layer="svg6" />
  <path
     d="M 6.34,0.07 A 6.29,6.29 0 0 0 0.05,6.37 6.29,6.29 0 0 0 6.35,12.65 6.29,6.29 0 0 0 12.63,6.36 6.29,6.29 0 0 0 6.34,0.07 Z M 6.33,1.01 a 5.4,5.4 0 0 1 5.4,5.4 5.4,5.4 0 0 1 -5.4,5.41 A 5.4,5.4 0 0 1 0.92,6.42 5.4,5.4 0 0 1 6.32,1 Z M 8.2,2.89 c -1.03,0 -1.86,0.83 -1.86,1.86 0,0.42 0.16,0.78 0.39,1.1 C 6.8,5.8 6.86,5.73 6.94,5.7 A 1.87,1.87 0 0 1 9,6.1 C 9.07,6.16 9.1,6.25 9.16,6.33 9.7,6 10.08,5.43 10.08,4.75 10.08,3.72 9.25,2.89 8.21,2.89 Z m -3.7,3.2 a 1.86,1.86 0 1 0 0,3.72 C 5.32,9.81 6,9.28 6.24,8.54 6.14,8.41 6.04,8.29 5.97,8.14 5.87,7.92 5.83,7.67 5.83,7.42 5.83,7.2 5.88,7.02 5.95,6.82 A 1.83,1.83 0 0 0 4.5,6.08 Z"
     id="path2"
     inkscape:connector-curvature="0"
     style="fill:#2c89a0" />
  <path
     d="m 5.2,3.24 a 1.865,1.865 0 1 0 0,3.73 c 0.25,0 0.5,-0.05 0.71,-0.14 V 6.85 L 5.31,7.34 5.65,8.46 6.19,8.53 A 1.8660453,1.8660453 0 1 0 9.16,6.27 L 9.19,5.84 8.56,5.44 7.76,5.36 7.01,5.49 A 1.84,1.84 0 0 0 5.2,3.24 Z"
     id="path4"
     inkscape:connector-curvature="0"
     style="opacity:0.75;fill:#2c89a0" />
</svg>
